X: 38670
T: Strange Drums, The
R: mazurka
M: 3/4
K: Dmajor
|:F2 FE FA|F2 FE FA|E2 ED EF|E2 DE FA|
F2 FE FA|F2 EF AB|d2 Ad de|1 ef ed BA:|2 ef AB de||
|:ef ee fe|d2 AB de|ef ee fe|dB BA F/E/D|
f2 ef fe|d2 BA F/E/D|E2 ED EF|1 E2 AB de:|2 E2 DE F/G/A||

